www/assets/icons/touch_app.svg

<svg xmlns="http://www.w3.org/2000/svg" width="24" height="24" viewBox="0 0 24 24" fill='currentColor'><path d="M8.75 9.74V6a2.5 2.5 0 0 1 5 0v3.74c1.21-.81 2-2.18 2-3.74 0-2.49-2.01-4.5-4.5-4.5S6.75 3.51 6.75 6c0 1.56.79 2.93 2 3.74m9.84 4.63-4.54-2.26c-.17-.07-.35-.11-.54-.11h-.76V6c0-.83-.67-1.5-1.5-1.5s-1.5.67-1.5 1.5v10.74c-3.6-.76-3.54-.75-3.67-.75-.31 0-.59.13-.79.33l-.79.8 4.94 4.94c.27.27.65.44 1.06.44h6.79c.75 0 1.33-.55 1.44-1.28l.75-5.27c.01-.07.02-.14.02-.2 0-.62-.38-1.16-.91-1.38"/></svg>

<svg width="24" height="24" viewBox="0 0 24 24" xmlns="http://www.w3.org/2000/svg" fill='currentColor'><path d="M8.75 9.74V6C8.75 4.62 9.87 3.5 11.25 3.5C12.63 3.5 13.75 4.62 13.75 6V9.74C14.96 8.93 15.75 7.56 15.75 6C15.75 3.51 13.74 1.5 11.25 1.5C8.76 1.5 6.75 3.51 6.75 6C6.75 7.56 7.54 8.93 8.75 9.74ZM18.59 14.37L14.05 12.11C13.88 12.04 13.7 12 13.51 12H12.75V6C12.75 5.17 12.08 4.5 11.25 4.5C10.42 4.5 9.75 5.17 9.75 6V16.74C6.15 15.98 6.21 15.99 6.08 15.99C5.77 15.99 5.49 16.12 5.29 16.32L4.5 17.12L9.44 22.06C9.71 22.33 10.09 22.5 10.5 22.5H17.29C18.04 22.5 18.62 21.95 18.73 21.22L19.48 15.95C19.49 15.88 19.5 15.81 19.5 15.75C19.5 15.13 19.12 14.59 18.59 14.37Z"/></svg>
